Papirus/48x48/mimetypes/application-x-sms-rom.svg

<svg width="48" height="48" version="1.1" xmlns="http://www.w3.org/2000/svg">
 <path d="m10 5c-1.108 0-2 0.892-2 2v36c0 1.108 0.892 2 2 2h28c1.108 0 2-0.892 2-2v-26l-12-12z" style="opacity:.2"/>
 <path d="m10 4c-1.108 0-2 0.892-2 2v36c0 1.108 0.892 2 2 2h28c1.108 0 2-0.892 2-2v-26l-10-2-2-10z" style="fill:#4f4f4f;stop-color:#000000"/>
 <path d="m40 17-12-12v10c0 1.108 0.892 2 2 2z" style="opacity:.2"/>
 <path d="m40 16-12-12v10c0 1.108 0.892 2 2 2z" style="fill:#696969;stop-color:#000000"/>
 <path d="m10 4c-1.108 0-2 0.892-2 2v1c0-1.108 0.892-2 2-2h18v-1h-18z" style="fill:#ffffff;opacity:.1"/>
 <g>
  <path d="m22.49414 18.998046c-4.100667 0-7.5 3.39933-7.5 7.5 0 4.100668 3.399333 7.500001 7.5 7.500001h3.00586c0.317593 0 0.494143 0.184365 0.494143 0.501955 0 0.317594-0.176542 0.503907-0.494143 0.503907h-10.50586v3.121091h10.50586c2.006472 0 3.623046-1.618529 3.623046-3.624998 0-2.006471-1.616574-3.623048-3.623046-3.623048h-3.00586c-2.411795 0-4.369141-1.967108-4.369141-4.378908 0-2.411795 1.957346-4.369137 4.369141-4.369137h10.50586v-3.130863zm0 3.876956c-2.006467 0-3.623047 1.616577-3.623047 3.623044 0 2.006472 1.61658 3.625002 3.623047 3.625002h3.00586c2.411799 0 4.36914 1.965155 4.36914 4.376954 0 2.411797-1.957341 4.378905-4.36914 4.378905h-10.50586v3.121093h10.50586c4.10067 0 7.5-3.39933 7.5-7.499998 0-4.100667-3.39933-7.5-7.5-7.5h-3.00586c-0.317594 0-0.501951-0.184366-0.501951-0.501956 0-0.317594 0.184366-0.494139 0.501951-0.494139h10.50586v-3.128905z" style="opacity:.2;stop-color:#000000"/>
  <path d="m22.49414 18c-4.100667 0-7.500001 3.39933-7.500001 7.5 0 4.100667 3.399334 7.500001 7.500001 7.500001h3.005859c0.317593 0 0.494143 0.184365 0.494143 0.501955 0 0.317594-0.176542 0.503906-0.494143 0.503906h-10.50586v3.121092h10.50586c2.006472 0 3.623047-1.61853 3.623047-3.624998 0-2.006472-1.616575-3.623048-3.623047-3.623048h-3.005859c-2.411796 0-4.369142-1.967108-4.369142-4.378908 0-2.411796 1.957346-4.369138 4.369142-4.369138h10.50586v-3.130862zm0 3.876956c-2.006468 0-3.623048 1.616576-3.623048 3.623044 0 2.006472 1.61658 3.625002 3.623048 3.625002h3.005859c2.411799 0 4.369141 1.965154 4.369141 4.376954 0 2.411796-1.957342 4.378905-4.369141 4.378905h-10.50586v3.121092h10.50586c4.10067 0 7.500001-3.39933 7.500001-7.499997s-3.399331-7.5-7.500001-7.5h-3.005859c-0.317594 0-0.501952-0.184366-0.501952-0.501956 0-0.317594 0.184366-0.494139 0.501952-0.494139h10.50586v-3.128905z" style="fill:#eb675e;stop-color:#000000"/>
 </g>
</svg>

<svg xmlns="http://www.w3.org/2000/svg" width="48" height="48" version="1.1">
 <path style="opacity:0.2" d="m10 5c-1.108 0-2 0.892-2 2v36c0 1.108 0.892 2 2 2h28c1.108 0 2-0.892 2-2v-26l-12-12z"/>
 <path style="fill:#4f4f4f" d="m10 4c-1.108 0-2 0.892-2 2v36c0 1.108 0.892 2 2 2h28c1.108 0 2-0.892 2-2v-26l-10-2-2-10z"/>
 <path style="opacity:0.2" d="m40 17-12-12v10c0 1.108 0.892 2 2 2z"/>
 <path style="fill:#696969" d="m40 16-12-12v10c0 1.108 0.892 2 2 2z"/>
 <path style="fill:#ffffff;opacity:0.1" d="m10 4c-1.108 0-2 0.892-2 2v1c0-1.108 0.892-2 2-2h18v-1h-18z"/>
 <path style="opacity:0.1" d="M 22.5,19 C 18.4,19 15,22.4 15,26.5 15,30.6 18.4,34 22.5,34 H 25.5 C 25.8,34 26,34.2 26,34.5 26,34.8 25.8,35 25.5,35 H 15 V 38.1 H 25.5 C 27.5,38.1 29.1,36.5 29.1,34.5 29.1,32.5 27.5,30.9 25.5,30.9 H 22.5 C 20.1,30.9 18.1,28.9 18.1,26.5 18.1,24.1 20.1,22.1 22.5,22.1 H 33 V 19 Z M 22.5,22.9 C 20.5,22.9 18.9,24.5 18.9,26.5 18.9,28.5 20.5,30.1 22.5,30.1 H 25.5 C 27.9,30.1 29.9,32.1 29.9,34.5 29.9,36.9 27.9,38.9 25.5,38.9 H 15 V 42 H 25.5 C 29.6,42 33,38.6 33,34.5 33,30.4 29.6,27 25.5,27 H 22.5 C 22.2,27 22,26.8 22,26.5 22,26.2 22.2,26 22.5,26 H 33 V 22.9 Z"/>
 <path style="fill:#eb675e" d="M 22.5,18 C 18.4,18 15,21.4 15,25.5 15,29.6 18.4,33 22.5,33 H 25.5 C 25.8,33 26,33.2 26,33.5 26,33.8 25.8,34 25.5,34 H 15 V 37.1 H 25.5 C 27.5,37.1 29.1,35.5 29.1,33.5 29.1,31.5 27.5,29.9 25.5,29.9 H 22.5 C 20.1,29.9 18.1,27.9 18.1,25.5 18.1,23.1 20.1,21.1 22.5,21.1 H 33 V 18 Z M 22.5,21.9 C 20.5,21.9 18.9,23.5 18.9,25.5 18.9,27.5 20.5,29.1 22.5,29.1 H 25.5 C 27.9,29.1 29.9,31.1 29.9,33.5 29.9,35.9 27.9,37.9 25.5,37.9 H 15 V 41 H 25.5 C 29.6,41 33,37.6 33,33.5 33,29.4 29.6,26 25.5,26 H 22.5 C 22.2,26 22,25.8 22,25.5 22,25.2 22.2,25 22.5,25 H 33 V 21.9 Z"/>
</svg>
